usr/share/icons/biglinux-icons-material-dark/symbolic/actions/node-type-cusp.svg

<svg xmlns="http://www.w3.org/2000/svg" viewBox="0 0 16 16">
  <defs id="defs3051">
    <style type="text/css" id="current-color-scheme">
      .ColorScheme-Text {
        color:#dedede;
      }
      .ColorScheme-Highlight {
        color:#3daee9;
      }
      </style>
  </defs>
  <path 
        style="fill:currentColor;fill-opacity:1;stroke:none"
        d="M 1 2 L 1 3 L 2 3 L 2 2 L 1 2 z M 2.0039062 2 L 2.0039062 3.0097656 C 4.7758372 3.6344881 6.8131787 6.7397333 6.9726562 10.441406 L 7.9179688 9.4960938 C 7.4459282 5.6565455 5.0785506 2.5705797 2.0039062 2 z M 14 2 C 13.999492 5.9032343 11.886481 9.2361798 9 9.8867188 L 9 10.410156 L 9.390625 10.800781 C 12.631191 9.9574112 14.995837 6.297778 15 2 L 14 2 z "
        class="ColorScheme-Text"
        />
  <path
        style="fill:currentColor;fill-opacity:1;stroke:none"
        d="m 5.173145,10.827109 2.82844,2.82844 2.82844,-2.82844 -2.82844,-2.8284402 z m 1.41422,0 1.41422,-1.4142202 1.41422,1.4142202 -1.41422,1.41422 z"
        class="ColorScheme-Highlight"
      />
</svg>

<svg xmlns="http://www.w3.org/2000/svg" viewBox="0 0 16 16">
<defs id="defs3051">
<style id="current-color-scheme" type="text/css">
.ColorScheme-Contrast{color:#dedede}.ColorScheme-Highlight{color:#3daee9}
</style>
</defs>
<path d="M1 2v1h1V2zm1.004 0v1.01c2.772.624 4.81 3.73 4.969 7.431l.945-.945C7.446 5.656 5.078 2.571 2.004 2M14 2c0 3.903-2.114 7.236-5 7.887v.523l.39.39C12.632 9.958 14.997 6.299 15 2z" class="ColorScheme-Contrast" style="fill:currentColor;fill-opacity:1;stroke:none"/>
<path d="m5.173 10.827 2.829 2.829 2.828-2.829L8.002 8zm1.414 0 1.415-1.414 1.414 1.414-1.414 1.414z" class="ColorScheme-Highlight" style="fill:currentColor;fill-opacity:1;stroke:none"/>
</svg>
